X:1
T:Title
L:1/8
M:4/4
K:Ab
V:1 treble nm="Grand Piano"
V:1
 z4 z2 z[Q:1/4=100] C | A2 G2 F2 EF/G/ | FEFE D C2 C | DE D2 CC A2 | F=E G2 F3 C | A2 G2 F2 EF/G/ | %6
 FEFE D C2 C | DE D2 CC=DC | =D=E F2 F3 c- | cBcB AG B2 | BAAG F3 c- | cBcB AG B2 | BAAG F3 c- | %13
 cBcB AG B2 | BAAG F3 c- | cBcB AGBA | GF c4- cA | A2 A2 A2 c2 | ABAG G3 G | G2 G2 G2 B>A | %20
 GAGF FGAA | A2 A2 A2 c2 | ABAG G3 G | G2 G2 G2 B>A | GA G2 F3 F | F2 A2 GFEE | EE G2 FEDD | %27
 E2 FE D2 AG | F=E G2 F4 |] %29

